X: 20
T:Mersey
% Nottingham Music Database
S:David Bradley (Feb 89), via PR
M:4/4
L:1/4
K:Em
"Em"[E/2G/2][E/2G/2][EG] [^D/2G/2][D/2F/2][DF]|[D/2F/2][D/2F/2][DF] [^C/2=F/2][C/2E/2][CE]|"B7"[B3/2^d3/2][^c/2=f/2] [^df][B^d]|"Em"[eg][Be] [GB][FA]|
"Em"[E/2G/2][E/2G/2][EG] [^D/2G/2][D/2F/2][DF]|[D/2F/2][D/2F/2][DF] [^C/2=F/2][C/2E/2][CE]|"B7"[B3/2^d3/2][A/2B/2] [FA][GB]|"Em"[E4G4]:|
"D7"[D3/2F3/2][E/2G/2] [FA][DF]|"G"[GB][Ac] [B2d2]|"B7"[^D3/2F3/2][E/2G/2] [FA][DF]|"Em"[EG][FA] [G2B2]|"Am"[ce][c3e3]|"Em"[Be][B3e3]|"F#7"[^A2^c2] [df][^ce]\
|"Bm"[^c=f][Bd] [ce][Bd]|
"Am"[ce][Ac] "D"[c3/2e3/2][A/2d/2]|"G"[Bd][GB] [D2G2]|"B7"[^DF][FA] [B3/2^d3/2][A/2B/2]|"Em"[Ac][GB] [G2B2]|"Am"[c2e2] -[ce][B/2d/2][c/2e/2]|"Em"[B4e4]|\
"B7"[B3/2^d3/2][A/2B/2] [FA][GB]|"Em"[E4G4]||


